**kern	**kern
*staff2	*staff1
*clefF4	*clefG2
*k[b-]	*k[b-]
*M3/4	*M3/4
=-	=-
4r	4cc
=187	=187
2.r	(16bLL
.	16cc
.	16b
.	16ccJJ
.	8ddL)
.	8cc'J
.	8b-'L
.	8a'J
=188	=188
2r	8g'L
.	8f'J
.	8e'L
.	8d'J
4B-	(8cL
.	8eJ)
=189	=189
(4A 4c	4f
4G 4B-	(8fL)
.	8eJ)
4F) 4A	(8fL
.	8aJ)
=190	=190
2C 2c	(4f 4a
.	4e) 4g
*clefG2	*
(4cc	(4ccc
=191	=191
8bL)	8bbL)
8cc'J	8ccc'J
8dd'L	(16dddLL
.	16eee
8cc'J	16ccc
.	16dddJJ
8b-'L	16bb-LL
.	16ccc
8a'J	16aa
.	16bb-JJ
=192	=192
8g'L	16ggLL
.	16aa
8f'J	16ff
.	16ggJJ
8e'L	16eeLL
.	16ff
8d'J	16dd
.	16eeJJ
8c'L	8ccL
8B-'J	8eeJ)
=193	=193
*	*^
4A	4ff	2r
4c	(8ffL	.
.	8aaJ)	.
*clefF4	*	*
4C	(8ggL	4b-
.	8eeJ)	.
=194	=194	=194
4F	4ff	4a
4FF	4r	2r
*	*v	*v
*-	*-
